client/public/img/game/shared/particles/casings/casing_50bmg.svg

<?xml version="1.0" encoding="UTF-8" standalone="no"?>
<svg
   width="20"
   height="82"
   viewBox="0 0 20 82"
   fill="none"
   version="1.1"
   id="svg4"
   xmlns="http://www.w3.org/2000/svg"
   xmlns:svg="http://www.w3.org/2000/svg">
  <defs
     id="defs4" />
  <path
     d="M1.01758 78.8604V80.1165L1.79578 80.6172H17.2579L18.0361 80.1165V78.8604H1.01758Z"
     fill="#E1954F"
     id="path1" />
  <path
     d="M1.01758 76.3616L1.73458 19.9789L3.59975 15.3512V1.76514H15.4538V15.3512L17.3188 19.9789L18.0359 76.3616L17.2538 78.0284H1.73458L1.01758 76.3616Z"
     fill="#E1954F"
     id="path2" />
  <rect
     x="2.32812"
     y="78.8608"
     width="0.832402"
     height="14.3941"
     transform="rotate(-90 2.32812 78.8608)"
     fill="#DA7C25"
     stroke="#57320F"
     stroke-width="0.999999"
     stroke-miterlimit="3.99393"
     id="rect2" />
  <path
     d="M17.3186 19.9785H1.73438M15.4536 15.3508H3.59955"
     stroke="#57320F"
     stroke-width="2"
     stroke-miterlimit="3.99393"
     id="path3" />
  <path
     d="M1.01758 78.8604V80.1165L1.79578 80.6172H17.2579L18.0361 80.1165V78.8604H16.7238V78.028H17.2538L18.0359 76.3613L17.3188 19.9785L15.4538 15.3508L15.4538 1.76478H3.59975L3.59975 15.3508L1.73458 19.9785L1.01758 76.3613L1.73458 78.028H2.32966V78.8604H1.01758Z"
     stroke="#57320F"
     stroke-width="2"
     stroke-miterlimit="3.99393"
     id="path4" />
</svg>

<svg xmlns="http://www.w3.org/2000/svg" width="20" height="82" fill="none"><path fill="#E1954F" d="M1.018 78.86v1.257l.778.5h15.462l.778-.5V78.86zM1.018 76.362l.717-56.383L3.6 15.35V1.765h11.854v13.586l1.865 4.628.717 56.383-.782 1.666H1.734z"/><path fill="#DA7C25" stroke="#57320F" stroke-miterlimit="3.994" d="M2.328 78.86v-.831h14.394v.832z"/><path stroke="#57320F" stroke-miterlimit="3.994" stroke-width="2" d="M17.319 19.979H1.734m13.72-4.628H3.6M1.018 78.86v1.257l.778.5h15.462l.778-.5V78.86h-1.312v-.832h.53l.782-1.667-.717-56.383-1.865-4.627V1.765H3.6V15.35l-1.865 4.627-.717 56.383.717 1.667h.595v.832z"/></svg>
